src/svg/sort-numerically-outline.svg

<svg version="1.2" baseProfile="tiny" xmlns="http://www.w3.org/2000/svg" width="24" height="24" viewBox="0 0 24 24"><path d="M23.292 12.134c.138-.445.208-.91.208-1.384 0-2.619-2.131-4.75-4.75-4.75-1.396 0-2.685.61-3.573 1.632l-.056-.067c-.973-.974-2.349-1.533-3.776-1.533-1.422 0-2.794.556-3.77 1.525-.264-.431-.644-.813-1.122-1.108-.474-.294-1.032-.449-1.613-.449-.482 0-.955.109-1.369.316l-1.406.747c-1.442.721-2.051 2.526-1.313 4.002.272.543.714.982 1.248 1.272v4.663c0 1.654 1.346 3 3 3 .766 0 1.458-.297 1.989-.771.54.487 1.25.771 2.011.771h5c.778 0 1.479-.305 2.01-.795.796.5 1.731.795 2.74.795 2.895 0 5.25-2.355 5.25-5.25 0-.922-.25-1.825-.708-2.616zm-17.292 4.866c0 .552-.448 1-1 1s-1-.448-1-1v-6.382c-.144.072-.306.106-.471.106-.401 0-.813-.203-.988-.553-.247-.494-.031-1.095.463-1.342l1.361-.724c.141-.07.307-.105.475-.105.199 0 .4.05.561.149.294.183.599.504.599.851v8zm8 1h-5c-.404 0-.769-.244-.924-.617-.155-.374-.069-.804.217-1.09l4-4c.254-.254.394-.591.394-.95 0-.358-.14-.695-.394-.949s-.601-.381-.949-.381-.696.127-.952.382c-.252.252-.392.589-.392.948 0 .552-.448 1-1 1s-1-.448-1-1c0-.894.348-1.733.98-2.364.632-.631 1.498-.947 2.364-.947s1.731.316 2.363.948c.632.631.979 1.471.979 2.363 0 .893-.348 1.733-.979 2.364l-2.293 2.293h2.586c.552 0 1 .448 1 1s-.448 1-1 1zm4.75 0c-1.792 0-3.25-1.458-3.25-3.25 0-.552.448-1 1-1s1 .448 1 1c0 .689.561 1.25 1.25 1.25s1.25-.561 1.25-1.25-.561-1.25-1.25-1.25c-.552 0-1-.448-1-1s.448-1 1-1c.414 0 .75-.336.75-.75s-.336-.75-.75-.75c-.281 0-.536.155-.665.404-.178.343-.527.54-.889.54-.155 0-.312-.036-.459-.112-.491-.254-.682-.857-.428-1.348.475-.915 1.41-1.484 2.441-1.484 1.516 0 2.75 1.233 2.75 2.75 0 .611-.207 1.17-.545 1.627.639.594 1.045 1.434 1.045 2.373 0 1.792-1.458 3.25-3.25 3.25z"/></svg>

<?xml version="1.0" encoding="iso-8859-1"?>
<!-- Generator: Adobe Illustrator 16.2.1, SVG Export Plug-In . SVG Version: 6.00 Build 0)  -->
<svg version="1.2" baseProfile="tiny" xmlns="http://www.w3.org/2000/svg" xmlns:xlink="http://www.w3.org/1999/xlink" x="0px"
	 y="0px" width="24px" height="24px" viewBox="0 0 24 24" xml:space="preserve">
<g id="Layer_1">
	<path d="M23.292,12.134c0.138-0.445,0.208-0.91,0.208-1.384C23.5,8.131,21.369,6,18.75,6c-1.396,0-2.685,0.61-3.573,1.632
		c-0.021-0.021-0.035-0.046-0.056-0.067c-0.973-0.974-2.349-1.533-3.776-1.533c-1.422,0-2.794,0.556-3.77,1.525
		C7.311,7.126,6.931,6.744,6.453,6.449C5.979,6.155,5.421,6,4.84,6C4.358,6,3.885,6.109,3.471,6.316L2.065,7.063
		c-1.442,0.721-2.051,2.526-1.313,4.002C1.024,11.608,1.466,12.047,2,12.337V17c0,1.654,1.346,3,3,3
		c0.766,0,1.458-0.297,1.989-0.771C7.529,19.716,8.239,20,9,20h5c0.778,0,1.479-0.305,2.01-0.795c0.796,0.5,1.731,0.795,2.74,0.795
		c2.895,0,5.25-2.355,5.25-5.25C24,13.828,23.75,12.925,23.292,12.134z M6,17c0,0.552-0.448,1-1,1s-1-0.448-1-1v-6.382
		c-0.144,0.072-0.306,0.106-0.471,0.106c-0.401,0-0.813-0.203-0.988-0.553C2.294,9.677,2.51,9.076,3.004,8.829l1.361-0.724
		C4.506,8.035,4.672,8,4.84,8c0.199,0,0.4,0.05,0.561,0.149C5.695,8.332,6,8.653,6,9V17z M14,18H9c-0.404,0-0.769-0.244-0.924-0.617
		c-0.155-0.374-0.069-0.804,0.217-1.09l4-4c0.254-0.254,0.394-0.591,0.394-0.95c0-0.358-0.14-0.695-0.394-0.949
		s-0.601-0.381-0.949-0.381s-0.696,0.127-0.952,0.382C10.14,10.647,10,10.984,10,11.343c0,0.552-0.448,1-1,1s-1-0.448-1-1
		c0-0.894,0.348-1.733,0.98-2.364c0.632-0.631,1.498-0.947,2.364-0.947s1.731,0.316,2.363,0.948
		c0.632,0.631,0.979,1.471,0.979,2.363c0,0.893-0.348,1.733-0.979,2.364L11.414,16H14c0.552,0,1,0.448,1,1S14.552,18,14,18z
		 M18.75,18c-1.792,0-3.25-1.458-3.25-3.25c0-0.552,0.448-1,1-1s1,0.448,1,1c0,0.689,0.561,1.25,1.25,1.25S20,15.439,20,14.75
		s-0.561-1.25-1.25-1.25c-0.552,0-1-0.448-1-1s0.448-1,1-1c0.414,0,0.75-0.336,0.75-0.75S19.164,10,18.75,10
		c-0.281,0-0.536,0.155-0.665,0.404c-0.178,0.343-0.527,0.54-0.889,0.54c-0.155,0-0.312-0.036-0.459-0.112
		c-0.491-0.254-0.682-0.857-0.428-1.348C16.784,8.569,17.719,8,18.75,8c1.516,0,2.75,1.233,2.75,2.75
		c0,0.611-0.207,1.17-0.545,1.627C21.594,12.971,22,13.811,22,14.75C22,16.542,20.542,18,18.75,18z"/>
</g>
<g id="nyt_x5F_exporter_x5F_info" display="none">
</g>
</svg>
